X: 40598
T: Ton Double Gavotte
R: slide
M: 12/8
K: Eminor
|(3edc de fg eg|fd fe c2 ce|(3edc de fg eg|fd fe c2 cg|
|:ga gf ef g2|(3gfe de fg eg|c2 de fg eg|1 fd fe c2 cg:|
(3dcB cd ef df|ec ed B2 Bd|(3dcB cd ef df|ec ed B2 Bf|
|:fg fe de f2|(3fed cd ef df|B2 cd ef df|1 ec ed B2 Bf:|
(3GFE FG AB GB|AF AG E2 EG|(3GFE FG AB GB|AF AG E2 EB|
|:Bc BA GA B2|(3BAG FG AB GB|E2 FG AB GB|1 AF AG E2 EB:|

